X:1
T:Child in the Manger
T:Child in the Manger
T:Scott Werdebaugh, 2017
T:Mary M. Macdonald (1789–1872)
T:Music © 2017 Scott Werdebaugh. Reproduce or publish freely for Christian worship or devotions. Courtesy of the Cyber Hymnal™
T:Music © 2017 Scott Werdebaugh. Reproduce or publish freely for Christian worship or devotions. Courtesy of the Cyber Hymnal™
T:Music © 2017 Scott Werdebaugh. Reproduce or publish freely for Christian worship or devotions. Courtesy of the Cyber Hymnal™
C:Scott Werdebaugh, 2017
Z:Music © 2017 Scott Werdebaugh. Reproduce or publish freely for Christian worship or devotions.
Z:Courtesy of the Cyber Hymnal™
%%score ( 1 2 ) ( 3 4 ) ( 5 6 ) ( 7 8 )
L:1/8
Q:1/4=110
M:4/4
K:C
V:1 treble 
V:2 treble 
V:3 bass 
V:4 bass 
V:5 treble 
V:6 treble 
V:7 bass 
V:8 bass 
V:1
"^Gently flowing" [EG]4 [DG]2 [DF]2 | [CE]4 [CE]4 | [B,D]4 [DG]2 [DF]2 | F4 [CE]4 | %4
w: 1.~Child in the|man- ger,|In- fant of|Ma- ry;|
w: 2.~Once the most|ho- ly|Child of sal-|va- tion|
w: 3.~Proph- ets fore-|told Him|In- fant of|won- der;|
 [FA]4 [Ac]2 [FA]2 | A4 [EG]4 | [D^F]4 [FA]4 | [DG]6 z2 | [DG]4 [DB]2 [Gd]2 | d4 c4 | %10
w: Out- cast and|Strang- er,|Lord of|all;|Child who in-|her- its|
w: Gent- ly and|low- ly|lived be-|low;|Now as our|glo- rious|
w: An- gels be-|hold Him|on His|throne;|Wor- thy our|Sav- ior|
 [Fc]4 [GB]2 [FA]2 | A4 [EG]4 | [FA]4 [DG]2 [DF]2 | F4 [CE]4 x2 | [A,C]4 (E2 D2) |1,2 [G,C]6 z2 :|3 %16
w: all our trans-|gres- sions,|All our de-|mer- its|on Him *|fall.|
w: Might- y Re-|deem- er,|See Him vic-|to- rious|o’er each *|foe.|
w: of all our|prais- es;|Hap- py for-|ev- er|are His *|~~|
 !fermata![G,C]8 |] x8 | %18
w: ||
w: ||
w: own.||
V:2
 x8 | x8 | x8 | (C2 D2) x4 | x8 | (C2 D2) x4 | x8 | x8 | x8 | (G2 ^G2) (A2 =G2) | x8 | (C2 D2) x4 | %12
 x8 | (C2 D2) x6 | x4 B,4 |1,2 x8 :|3 x8 |] x8 | %18
V:3
 [C,G,]4 [G,B,]2 [G,B,]2 | [A,,A,]4 [C,G,]4 | [G,,G,]4 [G,,B,]2 [G,B,]2 | (A,2 B,2) [C,G,]4 | %4
 [F,C]4 [F,A,]2 [F,C]2 | (A,2 B,2) [C,C]4 | [D,A,]4 [D,D]4 | [G,B,]6 z2 | %8
 [G,B,]4 [G,,F,]2 [G,B,]2 | B,4 (E,2 D,2) | [F,C]4 [G,D]2 [F,C]2 | (A,2 B,2) [C,G,]4 | %12
 [F,C]4 [G,B,]2 [G,B,]2 | [F,A,]4 G,4 B,,2 | [A,,E,]4 (G,3 F,) |1,2 [C,E,]6 z2 :|3 [C,E,]8 |] x8 | %18
V:4
 x8 | x8 | x8 | C,4 x4 | x8 | F,4 x4 | x8 | x8 | x8 | (G,2 E,2) G,,4 | x8 | F,4 x4 | x8 | %13
 x4 C,2 x4 | x4 G,,4 |1,2 x8 :|3 x8 |] x8 | %18
V:5
 [EG]4 [DG]2 [DF]2 | [CE]4 [CE]4 | [B,D]4 [DG]2 [DF]2 | F4 [CE]4 | [FA]4 [Ac]2 [FA]2 | A4 [EG]4 | %6
 [D^F]4 [FA]4 | [DG]8 | [DG]4 [DB]2 [Gd]2 | d4 c4 | [Fc]4 [GB]2 [FA]2 | A4 [EG]4 | %12
 [FA]4 [DG]2 [DF]2 | F4 [CE]4 x2 | C4 ([B,-E]2 [B,D]2) |1,2 C8 :|3 !fermata!C8 |] x8 | %18
V:6
 x8 | x8 | x8 | (C2 D2) x4 | x8 | (C2 D2) x4 | x8 | x8 | x8 | (G2 ^G2) (A2 =G2) | x8 | (C2 D2) x4 | %12
 x8 | (C2 D2) x6 | C4 x4 |1,2 x8 :|3 x8 |] x8 | %18
V:7
 G,4 B,4 | (A,2 B,2) (G,C,) (E,G,) | G,4 B,4 | (A,2 B,2) (G,C,) (E,G,) | C4 [F,A,]2 [A,C]2 | %5
 (A,2 B,2) C4 | A,4 (D2 C2) | [G,B,]8 | (B,2 G,2) F,2 B,2 | B,4 A,4 | A,4 [D,G,]2 [F,C]2 | %11
 (A,2 B,2) (G,C,) (E,G,) | F,4 B,4 | (A,C,) (D,F,) G,4 x2 | (A,C,) (E,A,) [G,,G,-]2 (G,F,) |1,2 %15
 [C,,C,E,G,]8 :|3 !fermata![C,E,G,]8 |] x8 | %18
V:8
 C,2 (E,G,) G,,2 (D,G,) | A,,4 C,4 | G,,2 (D,G,) G,,2 (D,G,) | C,4 C,4 | (A,F,) (A,C) x4 | %5
 F,4 C,2 (E,G,) | D,2 (^F,A,) D,4 | G,,2 (D,G,) (B,2 G,2) | [G,,F,]4 G,,4 | (D,2 E,2) (E,2 D,2) | %10
 C,2 (F,A,) x4 | F,4 C,4 | C,2 (A,C) G,,2 (D,G,) | F,4 (C,2 B,,2) x2 | [A,,E,]4 x G,,2 x |1,2 %15
 x8 :|3 (C,,4 C,,,4) |] x8 | %18

